icons/rocket-24.svg

<svg xmlns="http://www.w3.org/2000/svg" width="24" height="24" viewBox="0 0 24 24"><path d="M20.322.75h1.176a1.75 1.75 0 011.75 1.749v1.177a10.75 10.75 0 01-2.925 7.374l-1.228 1.304a23.699 23.699 0 01-1.596 1.542v5.038c0 .615-.323 1.184-.85 1.5l-4.514 2.709a.75.75 0 01-1.12-.488l-.963-4.572a1.305 1.305 0 01-.14-.129L8.04 15.96l-1.994-1.873a1.305 1.305 0 01-.129-.14l-4.571-.963a.75.75 0 01-.49-1.12l2.71-4.514c.316-.527.885-.85 1.5-.85h5.037a23.668 23.668 0 011.542-1.594l1.304-1.23A10.753 10.753 0 0120.321.75zm-6.344 4.018v-.001l-1.304 1.23a22.275 22.275 0 00-3.255 3.851l-2.193 3.29 1.859 1.744a.545.545 0 01.034.034l1.743 1.858 3.288-2.192a22.263 22.263 0 003.854-3.257l1.228-1.303a9.251 9.251 0 002.517-6.346V2.5a.25.25 0 00-.25-.25h-1.177a9.252 9.252 0 00-6.344 2.518zM6.5 21c-1.209 1.209-3.901 1.445-4.743 1.49a.236.236 0 01-.18-.067.236.236 0 01-.067-.18c.045-.842.281-3.534 1.49-4.743.9-.9 2.6-.9 3.5 0 .9.9.9 2.6 0 3.5zm-.592-8.588L8.17 9.017c.23-.346.47-.685.717-1.017H5.066a.25.25 0 00-.214.121l-2.167 3.612zM16 15.112c-.333.248-.672.487-1.018.718l-3.393 2.262.678 3.223 3.612-2.167a.25.25 0 00.121-.214zM17.5 8a1.5 1.5 0 11-3.001-.001A1.5 1.5 0 0117.5 8z"/></svg>

<svg xmlns="http://www.w3.org/2000/svg" width="24" height="24" viewBox="0 0 24 24">
  <defs/>
  <path d="M20.322,0.75 L21.498,0.75 C22.464,0.75 23.247,1.533 23.248,2.499 L23.248,3.676 C23.249,6.417 22.202,9.055 20.323,11.05 L19.095,12.354 C18.587,12.893 18.055,13.407 17.499,13.896 L17.499,18.934 C17.499,19.549 17.176,20.118 16.649,20.434 L12.135,23.143 C11.927,23.268 11.672,23.285 11.449,23.188 C11.227,23.091 11.065,22.892 11.015,22.655 L10.052,18.083 C10.003,18.044 9.956,18.001 9.912,17.954 L8.04,15.96 L6.046,14.087 C5.999,14.043 5.956,13.996 5.917,13.947 L1.346,12.984 C1.108,12.934 0.909,12.773 0.812,12.55 C0.715,12.328 0.731,12.072 0.856,11.864 L3.566,7.35 C3.882,6.823 4.451,6.5 5.066,6.5 L10.103,6.5 C10.592,5.945 11.106,5.413 11.645,4.906 L12.949,3.676 C14.944,1.797 17.581,0.75 20.321,0.75 Z M13.978,4.768 L13.978,4.767 L12.674,5.997 C11.447,7.153 10.355,8.445 9.419,9.848 L7.226,13.138 L9.085,14.882 C9.097,14.893 9.108,14.904 9.119,14.916 L10.862,16.774 L14.15,14.582 C15.554,13.646 16.847,12.553 18.004,11.325 L19.232,10.022 C20.849,8.305 21.75,6.035 21.749,3.676 L21.749,2.5 C21.749,2.362 21.637,2.25 21.499,2.25 L20.322,2.25 C17.964,2.25 15.694,3.151 13.978,4.768 Z M6.5,21 C5.291,22.209 2.599,22.445 1.757,22.49 C1.69,22.494 1.625,22.47 1.577,22.423 C1.53,22.375 1.506,22.31 1.51,22.243 C1.555,21.401 1.791,18.709 3,17.5 C3.9,16.6 5.6,16.6 6.5,17.5 C7.4,18.4 7.4,20.1 6.5,21 Z M5.908,12.412 L8.17,9.017 C8.4,8.671 8.64,8.332 8.887,8 L5.066,8 C4.978,8 4.897,8.046 4.852,8.121 L2.685,11.733 Z M16,15.112 C15.667,15.36 15.328,15.599 14.982,15.83 L11.589,18.092 L12.267,21.315 L15.879,19.148 C15.954,19.103 16,19.022 16,18.934 Z M17.5,8 C17.5,8.828 16.828,9.5 16,9.5 C15.172,9.5 14.5,8.828 14.5,8 C14.5,7.172 15.172,6.5 16,6.5 C16.828,6.5 17.5,7.172 17.5,8 Z"/>
</svg>
